X: 1837
T: Sûzidilârâ Seyir
C: Şefik Gürmeriç
O: Turkey
F: http://compmusic.upf.edu/node/140
N: suzidilara--seyir--sofyan--1--sefik_gurmeric
N: makam= suzidilara
N: form= seyir
N: usul= sofyan = 4/4
M: 4/4
L: 1/16
K: C ^9/8f   
Q: 1/4=60
%%MIDI tuningsystem comma53
G6F2 E4 F4  | G8 z4 A2B2  | c6d2 e4 d2c2  | B16  | \
w:   |   |   |   | 
c6B2 A4 ^G4  | A8 e8  | d4 c4 B4 A2B2  | 
w:   |   |   | 
A2G2 G2F2 F3E D4  | G6F2 E4 F4  | G8 z4 A2B2  | \
w:   |   |   | 
c4 d2e2 d2c2 B2c2  | 
w:   | 
d8 z4 g4  | f2g2 a2b2 a2g2 f4  | e8 z4 e4  | \
w:   |   |   | 
=f2e2 f2g2 f4 e4  | d8 z4 d4  | 
w:   |   | 
e2d2 e2=f2 e4 d4  | c8 z4 B2c2  | d4 e4 d4 c2B2  | \
w:   |   |   | 
A8 A2_7/8B2 A2G2  | d^cde d2c2 _7/8B3A G2F2  | 
w:   |   | 
G8 c4 B2A2  | A2G2 G2F2 E4 F4  | G16  | |


